!!!COM: Bach, Johann Sebastian
!!!OPR: Joh. Seb. Bachs vierstimmige Choralgesänge
!!!XEN: Four-part Chorales
!!!OTL: Chorale 46. Dir, dir, Jehova, will ich singen
!!!SCT: BWV 299
!!!SCA: Thematisch-systematisches Verzeichnis der musikalischen Werke Johann Sebastian Bach: Bach-Werke-Verzeichnis (Schmieder)
!!!YOR: Bach Gesellschaft Edition xxxix
!!!ENC: Steven Rasmussen
!!!CDT: 1685/3//-1750/7/28/
!!!OCY: Deutschland
!!!YEC: Copyright (c) 1994, 2000 Center for Computer Assisted Research in the Humanities
!!!YEM: Rights to all derivative editions reserved
!!!YEN: United States of America
**kern	**silbe	**kern	**silbe	**kern	**silbe	**kern	**silbe
*I:[BASSO]	*I:[BASSO]	*I:[TENORE]	*I:[TENORE]	*I:[ALTO]	*I:[ALTO]	*I:[SOPRANO]	*I:[SOPRANO]
*>[A,A,B]	*	*>[A,A,B]	*	*>[A,A,B]	*	*>[A,A,B]	*
*>A	*	*>A	*	*>A	*	*>A	*
*clefF4	*	*clefGv2	*	*clefG2	*	*clefG2	*
*k[b-e-]	*	*k[b-e-]	*	*k[b-e-]	*	*k[b-e-]	*
*B-:	*	*B-:	*	*B-:	*	*B-:	*
*M3/4	*	*M3/4	*	*M3/4	*	*M3/4	*
4B-	.	4B-	.	4d	.	4f	Dir,Dir
=1	=1	=1	=1	=1	=1	=1	=1
4D	.	4B-	.	4f	.	4b-	dir,will
4C	.	8fL	.	8b-L	.	8ddL	.
.	.	8e-J	.	8aJ	.	8ccJ	.
4BB-	.	4f	.	4b-	.	8ddL	Je-ich
.	.	.	.	.	.	8b-J	.
=2	=2	=2	=2	=2	=2	=2	=2
4E-	.	4e-	.	4b-	.	4gg	-ho-mei-
8GL	.	8B-L	.	2g	.	2ee-	-va,-ne
8F	.	8A	.	.	.	.	.
8G	.	8B-	.	.	.	.	.
8E-J	.	8cJ	.	.	.	.	.
=3	=3	=3	=3	=3	=3	=3	=3
8B-L	.	2d	.	4f	.	4ff	willLie-
8AJ	.	.	.	.	.	.	.
4G	.	.	.	8gL	.	4b-	.
.	.	.	.	8aJ	.	.	.
4E-	.	4g	.	4b-	.	4ee-	ich-der
=4	=4	=4	=4	=4	=4	=4	=4
2F	.	4.f	.	4b-	.	2ccT	sin-brin-
.	.	.	.	4a	.	.	.
.	.	8e-	.	.	.	.	.
4BB-;	.	4d;	.	4f;	.	4b-;	-gen,-gen;
=5	=5	=5	=5	=5	=5	=5	=5
8AL	.	8cL	.	4f	.	4cc	dennach
8GJ	.	8B-J	.	.	.	.	.
8AL	.	8cL	.	4.f	.	4ee-	wogib
8FJ	.	8AJ	.	.	.	.	.
4B-	.	4B-	.	.	.	4dd	istmir
.	.	.	.	8g	.	.	.
=6	=6	=6	=6	=6	=6	=6	=6
4F	.	4c	.	4a	.	4cc	dochdei-
4E-	.	4F	.	8b-L	.	8ddL	ein-nes
.	.	.	.	8aJ	.	8ccJ	.
4D	.	4F	.	4b-	.	8ddL	sol-Gei-
.	.	.	.	.	.	8b-J	.
=7	=7	=7	=7	=7	=7	=7	=7
4C	.	4c	.	4e-	.	8aL	-cher-stes
.	.	.	.	.	.	8b-J	.
8DL	.	4B-	.	8fL	.	4.b-T	Gott,Kraft
8CJ	.	.	.	8e-J	.	.	.
8DL	.	8FL	.	8fL	.	.	.
8BB-J	.	8GJ	.	8enJ	.	8cc	wiedar-
=8	=8	=8	=8	=8	=8	=8	=8
2FF;	.	2A;	.	2f;	.	2cc;	du?-zu,
=:|!	=:|!	=:|!	=:|!	=:|!	=:|!	=:|!	=:|!
*>B	*	*>B	*	*>B	*	*>B	*
8FL	.	4c	.	4f	.	4a	dass
8E-J	.	.	.	.	.	.	.
=9	=9	=9	=9	=9	=9	=9	=9
4D	ich	4F	.	2f	.	4b-	ich
8E-L	es	4A	.	.	.	4cc	.
8D	.	.	.	.	.	.	.
8C	.	4B-	.	4f	.	4dd	es
8BB-J	.	.	.	.	.	.	.
=10	=10	=10	=10	=10	=10	=10	=10
4.E-	.	4.B-	tu'	4.e-	.	4g	tu'
.	.	.	.	.	.	8ggL	im
8E-	.	8c	im	8g	.	8ee-J	.
[4A-	.	[4c	Na-	8e-L	.	8ccL	Na-
.	.	.	.	8dJ	.	8bnJ	.
=11	=11	=11	=11	=11	=11	=11	=11
8A-]	.	8c]	.	4e-	.	8ccL	-men
8G	.	8c	-men	.	.	8ddJ	.
4F	.	4c	.	4a-	.	4.dd	Je-
4G	.	4Bn	.	4g	.	.	.
.	.	.	.	.	.	8ee-	-su
=12	=12	=12	=12	=12	=12	=12	=12
2C;	.	2c;	.	2g;	.	2ee-;	Christ,
4E-	.	4c	.	4g	.	4cc	so
=13	=13	=13	=13	=13	=13	=13	=13
!	!	!	!	!	!	! (8b-P/	!
2F	.	2c	wie	4f	.	4ap)	wie
.	.	.	.	(4g	.	8b-L	es
.	.	.	.	.	.	8a	.
4E-	.	4c	es	4a)	.	8g	.
.	.	.	.	.	.	8fJ	.
=14	=14	=14	=14	=14	=14	=14	=14
4D	.	4.d	dir	4.b-	dir	4.ff	dir
8GL	.	.	.	.	.	.	.
8FJ	.	8d	.	8b-	durch	8b-	durch
8E-L	.	4e-	.	4b-	ihn	[4gg	ihn
8DJ	.	.	.	.	.	.	.
=15	=15	=15	=15	=15	=15	=15	=15
4E-	.	4B-	.	4b-	ge-	8gg]	.
.	.	.	.	.	.	8ff	ge-
!	!	!	!	!	!	! (8ee-P/	!
4F	.	4f	.	4b-	-fäl-	4ddp)	-fäl-
4FF	.	8e-L	.	4a	-lig	8ccL	-lig
.	.	8dJ	.	.	.	8b-J	.
=16	=16	=16	=16	=16	=16	=16	=16
2BB-;	.	2d;	.	2f;	ist.	2b-;	ist.
==|!	==|!	==|!	==|!	==|!	==|!	==|!	==|!
*-	*-	*-	*-	*-	*-	*-	*-
!!!RWG: Appoggiaturas of spine '[SOPRANO]' need manual editing in measures: 13, 15
!!!RWG: Key is interpreted using the Humdrum key tool.
!!!URL-pdf: https://s9.imslp.org/files/imglnks/usimg/6/6b/IMSLP24489-PMLP09471-CCARH_Bach_Chorales.pdf#page=31 Musedata edition
!!!URL-pdf: https://s9.imslp.org/files/imglnks/usimg/7/7a/IMSLP04155-Bach_-_BGA_253-438.pdf#page=25 	Bach-Gesellschaft Ausgabe, Band 39 (pp.175-276) Leipzig: Breitkopf und Härtel, 1892. Plate B.W. XXXIX.
!!!END: 1994/05/17
!!!EMD: Converted from MuseData to Humdrum Dec 19, 2000, by Andreas Kornstaedt using muse2kern.
!!!EED: Craig Stuart Sapp
!!!EEV: 2024/03/31
!!!filter-keyboard: satb2gs
!!!title: @{OTL} (@{SCT})
